images_sukapura_svg/cmd/lc_alignverticalcenter.svg

<svg viewBox="0 0 24 24" xmlns="http://www.w3.org/2000/svg" xmlns:xlink="http://www.w3.org/1999/xlink"><linearGradient id="a" gradientTransform="translate(-25.830508 -3.59322)" gradientUnits="userSpaceOnUse" x1="14" x2="13.79661" y1="22" y2="2.135593"><stop offset="0" stop-color="#0040dd"/><stop offset="1" stop-color="#0a84ff"/></linearGradient><linearGradient id="b" gradientUnits="userSpaceOnUse" x1="11.509766" x2="11.378389" xlink:href="#a" y1="8.507813" y2="2.453048"/><linearGradient id="c" gradientUnits="userSpaceOnUse" x1="11.608397" x2="11.509766" xlink:href="#a" y1="22.171284" y2="15.5"/><g fill="#e9e9e9" fill-opacity=".992157" transform="matrix(-1 0 0 1 0 1)"><rect height="1" ry=".5" width="18" x="-21" y="10"/><rect height="1" ry=".5" width="11" x="-14" y="13"/></g><path d="m11.509766 15.5-4.0039066 4.007812h2.9999996v2h1.994141v-2h3.005859z" fill="url(#c)" stroke="url(#c)" stroke-linecap="round" stroke-linejoin="round" stroke-width=".999439"/><path d="m10.505859 2.5v2h-2.9999996l4.0039066 4.0078125 3.996093-4.0078125h-3.005859v-2z" fill="url(#b)" stroke="url(#b)" stroke-linecap="round" stroke-linejoin="round" stroke-width=".999439"/><g fill="#69696e" transform="scale(-1 1)"><rect height="1" ry=".5" width="18" x="-21" y="10"/><rect height="1" ry=".5" width="11" x="-14" y="13"/></g></svg>

<?xml version="1.0" encoding="UTF-8" standalone="no"?>
<svg
   xmlns:dc="http://purl.org/dc/elements/1.1/"
   xmlns:cc="http://creativecommons.org/ns#"
   xmlns:rdf="http://www.w3.org/1999/02/22-rdf-syntax-ns#"
   xmlns:svg="http://www.w3.org/2000/svg"
   xmlns="http://www.w3.org/2000/svg"
   xmlns:xlink="http://www.w3.org/1999/xlink"
   xmlns:sodipodi="http://sodipodi.sourceforge.net/DTD/sodipodi-0.dtd"
   xmlns:inkscape="http://www.inkscape.org/namespaces/inkscape"
   viewBox="0 0 24 24"
   version="1.1"
   id="svg20"
   sodipodi:docname="lc_alignverticalcenter.svg"
   inkscape:version="0.92.3 (unknown)"
   inkscape:export-filename="/home/rizmut/Dokumen/Rizmut/Github/libreoffice-style-sukapura/images_sukapura/cmd/lc_alignverticalcenter.png"
   inkscape:export-xdpi="96"
   inkscape:export-ydpi="96">
  <metadata
     id="metadata26">
    <rdf:RDF>
      <cc:Work
         rdf:about="">
        <dc:format>image/svg+xml</dc:format>
        <dc:type
           rdf:resource="http://purl.org/dc/dcmitype/StillImage" />
      </cc:Work>
    </rdf:RDF>
  </metadata>
  <defs
     id="defs24">
    <linearGradient
       gradientTransform="translate(-25.830508,-3.5932203)"
       id="a"
       gradientUnits="userSpaceOnUse"
       x1="14"
       x2="13.79661"
       y1="22"
       y2="2.1355929">
      <stop
         offset="0"
         stop-color="#0040dd"
         id="stop2" />
      <stop
         offset="1"
         stop-color="#0a84ff"
         id="stop4" />
    </linearGradient>
    <linearGradient
       inkscape:collect="always"
       xlink:href="#a"
       id="linearGradient1047"
       gradientUnits="userSpaceOnUse"
       gradientTransform="matrix(-1,0,0,1,-29.010942,26.95119)"
       x1="-31.010942"
       y1="-4.95119"
       x2="-31.010942"
       y2="-16.951191" />
    <linearGradient
       inkscape:collect="always"
       xlink:href="#a"
       id="linearGradient866"
       x1="11.509766"
       y1="8.5078125"
       x2="11.378389"
       y2="2.4530482"
       gradientUnits="userSpaceOnUse" />
    <linearGradient
       inkscape:collect="always"
       xlink:href="#a"
       id="linearGradient874"
       x1="11.509766"
       y1="8.5078125"
       x2="11.378389"
       y2="2.4530482"
       gradientUnits="userSpaceOnUse" />
    <linearGradient
       inkscape:collect="always"
       xlink:href="#a"
       id="linearGradient882"
       x1="11.608397"
       y1="22.171284"
       x2="11.509766"
       y2="15.5"
       gradientUnits="userSpaceOnUse" />
    <linearGradient
       inkscape:collect="always"
       xlink:href="#a"
       id="linearGradient890"
       x1="11.608397"
       y1="22.171284"
       x2="11.509766"
       y2="15.5"
       gradientUnits="userSpaceOnUse" />
  </defs>
  <sodipodi:namedview
     pagecolor="#ffffff"
     bordercolor="#666666"
     borderopacity="1"
     objecttolerance="10"
     gridtolerance="10"
     guidetolerance="10"
     inkscape:pageopacity="0"
     inkscape:pageshadow="2"
     inkscape:window-width="1366"
     inkscape:window-height="706"
     id="namedview22"
     showgrid="false"
     inkscape:zoom="4.9166667"
     inkscape:cx="-16.841728"
     inkscape:cy="14.356079"
     inkscape:window-x="0"
     inkscape:window-y="0"
     inkscape:window-maximized="1"
     inkscape:current-layer="svg20" />
  <g
     id="g837"
     transform="matrix(-1,0,0,1,0,1)"
     style="fill:#e9e9e9;fill-opacity:0.99215686">
    <rect
       id="rect833"
       y="10"
       x="-21"
       width="18"
       ry="0.5"
       height="1"
       style="fill:#e9e9e9;fill-opacity:0.99215686" />
    <rect
       id="rect835"
       y="13"
       x="-14"
       width="11"
       ry="0.5"
       height="1"
       style="fill:#e9e9e9;fill-opacity:0.99215686" />
  </g>
  <g
     fill="#0a84ff"
     stroke="#0a84ff"
     stroke-linecap="round"
     stroke-linejoin="round"
     transform="translate(-.985461 15.000015)"
     id="g6">
    <path
       style="stroke-width:0.99943942;stroke:url(#linearGradient882);stroke-opacity:1;fill-opacity:1;fill:url(#linearGradient890)"
       d="M 11.509766 15.5 L 7.5058594 19.507812 L 10.505859 19.507812 L 10.505859 21.507812 L 12.5 21.507812 L 12.5 19.507812 L 15.505859 19.507812 L 11.509766 15.5 z "
       transform="translate(0.985461,-15.000015)"
       id="path2" />
  </g>
  <g
     fill="#0a84ff"
     stroke="#0a84ff"
     stroke-linecap="round"
     stroke-linejoin="round"
     transform="matrix(1 0 0 -1 -.985461 9.007107)"
     id="g12">
    <path
       style="stroke-width:0.99943942;fill-opacity:1;fill:url(#linearGradient866);stroke:url(#linearGradient874)"
       d="M 10.505859 2.5 L 10.505859 4.5 L 7.5058594 4.5 L 11.509766 8.5078125 L 15.505859 4.5 L 12.5 4.5 L 12.5 2.5 L 10.505859 2.5 z "
       transform="matrix(1,0,0,-1,0.985461,9.007107)"
       id="path8" />
  </g>
  <g
     fill="#69696e"
     transform="scale(-1 1)"
     id="g18">
    <rect
       height="1"
       ry=".5"
       width="18"
       x="-21"
       y="10"
       id="rect14" />
    <rect
       height="1"
       ry=".5"
       width="11"
       x="-14"
       y="13"
       id="rect16" />
  </g>
</svg>
